static/logos/paddle-wordmark-color.svg

<svg width="100" height="31" viewBox="0 0 100 31" fill="none" xmlns="http://www.w3.org/2000/svg">
<g clip-path="url(#clip0_1_1745)">
<path d="M0 15.8154V14.9823C1.02572 14.9825 2.01 14.5775 2.73846 13.8554C3.09775 13.4995 3.38304 13.0759 3.5779 12.6092C3.77276 12.1425 3.87335 11.6419 3.87385 11.1362H4.64846C4.6476 11.6425 4.74732 12.1439 4.94183 12.6114C5.13634 13.0788 5.42177 13.503 5.78154 13.8592C6.50948 14.5838 7.49521 14.99 8.52231 14.9885V15.8208C7.49659 15.8205 6.51231 16.2255 5.78385 16.9477C5.42456 17.3036 5.13927 17.7272 4.94441 18.1938C4.74955 18.6605 4.64896 19.1612 4.64846 19.6669H3.87385C3.87471 19.1606 3.77498 18.6592 3.58048 18.1917C3.38597 17.7242 3.10054 17.3001 2.74077 16.9438C2.01148 16.2214 1.02656 15.8158 0 15.8154ZM3.87385 9.69231H10.5354C13.7892 9.69231 16.1146 12 16.1146 15.3846C16.1146 18.77 13.7908 21.0769 10.5362 21.0769H3.87385V30.7692H6.66154V23.5385H10.5354C15.2146 23.5385 18.9031 19.8769 18.9031 15.3846C18.9031 10.8931 15.2146 7.23077 10.5354 7.23077H3.87385V9.69231ZM28.9131 7.2C31.3608 7.2 33.53 8.43077 34.8931 10.3692V7.69231H37.6823V23.0769H34.8931V20.4C33.4954 22.3423 31.33 23.5692 28.9131 23.5692C24.3254 23.5692 20.4515 19.9692 20.4515 15.3846C20.4515 10.8008 24.3262 7.2 28.9131 7.2ZM28.9131 21.1077C32.5069 21.1077 34.8931 18.6462 34.8931 15.3846C34.8931 12.0923 32.5392 9.66154 28.9131 9.66154C25.69 9.66154 23.2408 11.9692 23.2408 15.3846C23.2408 18.8008 25.69 21.1077 28.9131 21.1077ZM48.0015 7.2C50.45 7.2 52.6192 8.43077 53.9823 10.3692V0H56.7715V23.0769H53.9823V20.4C52.6192 22.3423 50.45 23.5692 48.0015 23.5692C43.4154 23.5692 39.5415 19.9692 39.5415 15.3846C39.5415 10.8008 43.4146 7.2 48.0015 7.2ZM48.0015 21.1077C51.6269 21.1077 53.9823 18.6769 53.9823 15.3846C53.9823 12.0931 51.6269 9.66154 48.0015 9.66154C44.7785 9.66154 42.33 11.9692 42.33 15.3846C42.33 18.8008 44.7792 21.1077 48.0015 21.1077ZM67.4015 7.2C69.85 7.2 72.0192 8.43077 73.3831 10.3692V0H76.1723V23.0769H73.3831V20.4C72.0192 22.3423 69.85 23.5692 67.4015 23.5692C62.8154 23.5692 58.9415 19.9692 58.9415 15.3846C58.9415 10.8008 62.8154 7.2 67.4015 7.2ZM67.4015 21.1077C71.0277 21.1077 73.3831 18.6769 73.3831 15.3846C73.3831 12.0931 71.0277 9.66154 67.4015 9.66154C64.1785 9.66154 61.7308 11.9692 61.7308 15.3846C61.7308 18.8008 64.1785 21.1077 67.4015 21.1077ZM78.9577 23.0769V0H81.7477V23.0769H78.9577ZM92.0685 7.23077C97.4292 7.23077 100.001 11.3846 100.001 16.4623H86.6146C87.0477 19.4469 89.28 21.3854 92.0685 21.3854C93.99 21.3854 95.4769 20.5238 96.5923 18.8315H99.5985C98.5446 21.2008 95.7877 23.5392 92.0685 23.5392C87.3892 23.5392 83.7631 19.8162 83.7631 15.3854C83.7631 10.9562 87.3892 7.23154 92.0685 7.23154V7.23077ZM97.2123 14.3092C97.2123 11.7846 95.0431 9.38461 92.0685 9.38461C89.28 9.38461 87.0477 11.3277 86.6146 14.3092H97.2123Z" fill="#FDDD35"/>
</g>
<defs>
<clipPath id="clip0_1_1745">
<rect width="100" height="30.7692" fill="white"/>
</clipPath>
</defs>
</svg>

<svg xmlns="http://www.w3.org/2000/svg" width="206.452" height="64" fill="none" viewBox="0 0 100 31"><g clip-path="url(#a)"><path fill="#FDDD35" d="M0 15.815v-.833c1.026 0 2.01-.404 2.738-1.127a3.833 3.833 0 0 0 1.136-2.719h.774a3.823 3.823 0 0 0 1.134 2.723 3.877 3.877 0 0 0 2.74 1.13v.832c-1.025 0-2.01.405-2.738 1.127a3.833 3.833 0 0 0-1.136 2.719h-.774a3.823 3.823 0 0 0-1.133-2.723A3.897 3.897 0 0 0 0 15.815Zm3.874-6.123h6.661c3.254 0 5.58 2.308 5.58 5.693s-2.324 5.692-5.579 5.692H3.874v9.692h2.788v-7.23h3.873c4.68 0 8.368-3.662 8.368-8.154S15.215 7.23 10.535 7.23H3.874v2.461ZM28.914 7.2c2.447 0 4.616 1.23 5.98 3.17V7.691h2.788v15.385h-2.789V20.4c-1.398 1.942-3.563 3.17-5.98 3.17-4.588 0-8.462-3.6-8.462-8.185 0-4.584 3.875-8.185 8.462-8.185Zm0 13.908c3.593 0 5.98-2.462 5.98-5.723 0-3.293-2.355-5.723-5.98-5.723-3.224 0-5.673 2.307-5.673 5.723s2.449 5.723 5.672 5.723ZM48 7.2c2.449 0 4.618 1.23 5.981 3.17V0h2.79v23.077h-2.79V20.4c-1.363 1.942-3.532 3.17-5.98 3.17-4.587 0-8.46-3.6-8.46-8.185 0-4.584 3.873-8.185 8.46-8.185Zm0 13.908c3.626 0 5.981-2.431 5.981-5.723s-2.355-5.723-5.98-5.723c-3.224 0-5.672 2.307-5.672 5.723s2.45 5.723 5.672 5.723ZM67.401 7.2c2.449 0 4.618 1.23 5.982 3.17V0h2.79v23.077h-2.79V20.4c-1.364 1.942-3.533 3.17-5.981 3.17-4.587 0-8.46-3.6-8.46-8.185 0-4.584 3.873-8.185 8.46-8.185Zm0 13.908c3.627 0 5.982-2.431 5.982-5.723s-2.355-5.723-5.981-5.723c-3.224 0-5.671 2.307-5.671 5.723s2.447 5.723 5.67 5.723Zm11.557 1.969V0h2.79v23.077h-2.79ZM92.068 7.23c5.361 0 7.933 4.154 7.933 9.231H86.615c.433 2.985 2.665 4.923 5.454 4.923 1.921 0 3.408-.861 4.523-2.554H99.6c-1.054 2.37-3.811 4.708-7.53 4.708-4.68 0-8.306-3.723-8.306-8.154 0-4.429 3.626-8.153 8.305-8.153V7.23Zm5.144 7.078c0-2.524-2.169-4.924-5.144-4.924-2.788 0-5.02 1.943-5.453 4.924h10.597Z"/></g><defs><clipPath id="a"><path fill="#fff" d="M0 0h100v30.769H0z"/></clipPath></defs></svg>
